!!!OTL: SO OFT ICH MEINE TOBAKSPFEIFE
!!!ARE: Europa, Mitteleuropa, Deutschland
!!!SCT: B0649
!!!YEM: Copyright 1995, estate of Helmut Schaffrath.
**kern
*ICvox
*Ivox
*M3/4
*k[b-e-]
*g:
=1
{4g
4g
4g
=2
4.cc
16dd
16ee-
4dd
=3
4cc
8b-
8a
4dd
=4
4b-
8a
8b-
4g}
=5
{4b-
4b-
4b-
=6
4.dd
16ee-
16ffn
4b-
=7
4cc
2a
=8
2.b-}
=9
{4g
4g
4g
=10
4.cc
16dd
16ee-
4dd
=11
4cc
8b-
8a
4dd
=12
4b-
8a
8b-
4g}
=13
{4b-
4b-
4b-
=14
4.dd
16ee-
16ffn
4b-
=15
4cc
2a
=16
2.b-}
=17
{4cc
4cc
4cc
=18
2ffn
4a
=19
4dd
8cc
8b-
8a
8g
=20
2.f#}
=21
{4d
4f#
4a
=22
4.cc
16dd
16ee-
4dd
=23
4b-
4g
4f#
=24
2.g}
==
!!!AGN: Moral -, Lob - Lied auf den Tabak
!!!ONB: ESAC (Essen Associative Code) Database: BOEHME
!!!AMT: simple triple
!!!AIN: vox
!!!EED: Helmut Schaffrath
!!!EEV: 1.0
*-
